Obsidian/actions/16s/colorneg.svg

<svg height="16" viewBox="0 0 16 16" width="16" xmlns="http://www.w3.org/2000/svg"><path d="m3 1c-1.108 0-2 .892-2 2v10c0 1.108.892 2 2 2h10c1.108 0 2-.892 2-2v-10c0-1.108-.892-2-2-2zm10 2v10h-10l2.1738281-2.173828a4 4 0 0 1 -1.1738281-2.826172 4 4 0 0 1 4-4 4 4 0 0 1 2.826172 1.1738281zm-2.173828 2.1738281-5.6523439 5.6523439a4 4 0 0 0 2.8261719 1.173828 4 4 0 0 0 4-4 4 4 0 0 0 -1.173828-2.8261719z" fill="#bebebe"/></svg>

<svg xmlns="http://www.w3.org/2000/svg" width="16" height="16" version="1.1" viewBox="0 0 16 16">
 <defs>
  <style id="current-color-scheme" type="text/css">
   .ColorScheme-Text { color:#bebebe; } .ColorScheme-Highlight { color:#4285f4; }
  </style>
 </defs>
 <path style="fill:currentColor" class="ColorScheme-Text" d="M 3 1 C 1.892 1 1 1.892 1 3 L 1 13 C 1 14.108 1.892 15 3 15 L 13 15 C 14.108 15 15 14.108 15 13 L 15 3 C 15 1.892 14.108 1 13 1 L 3 1 z M 13 3 L 13 13 L 3 13 L 5.1738281 10.826172 A 4 4 0 0 1 4 8 A 4 4 0 0 1 8 4 A 4 4 0 0 1 10.826172 5.1738281 L 13 3 z M 10.826172 5.1738281 L 5.1738281 10.826172 A 4 4 0 0 0 8 12 A 4 4 0 0 0 12 8 A 4 4 0 0 0 10.826172 5.1738281 z"/>
</svg>
